report_00007_2020-12-11T15:55:29.892Z/max-potential-fid/comparison/line/9_vs_10.svg

<svg width="640" height="500" xmlns="http://www.w3.org/2000/svg" xmlns:xlink="http://www.w3.org/1999/xlink"><path fill="#fff" d="M0 0h640v500H0z"/><defs><path id="d" stroke-width=".222" stroke="currentColor" d="M-1-1h2v2h-2z"/><path id="b" stroke-width=".222" stroke="currentColor" d="M0-1.33l-1.33 2h2.66z"/><path id="f" stroke-width=".222" stroke="currentColor" d="M0 1.33L1.265.411.782-1.067l-1.564-.009-.483 1.487z"/><use xlink:href="#b" id="c" stroke="currentColor" transform="rotate(180)"/><use xlink:href="#d" id="e" stroke="currentColor" transform="rotate(45)"/><circle id="a" stroke-width=".222" stroke="currentColor" cx="0" cy="0" r="1"/></defs><g fill="none" color="#000" stroke="currentColor"><path stroke="#000" d="M87.1 428h9m518.9 0h-9"/><text transform="translate(78.8 431.9)" stroke="none" fill="#000" font-family="Arial" font-size="12" text-anchor="end"><tspan>15.999</tspan></text></g><g fill="none" color="#000" stroke="currentColor"><path stroke="#000" d="M87.1 325.5h9m518.9 0h-9"/><text transform="translate(78.8 329.4)" stroke="none" fill="#000" font-family="Arial" font-size="12" text-anchor="end"><tspan>15.9995</tspan></text></g><g fill="none" color="#000" stroke="currentColor"><path stroke="#000" d="M87.1 223.1h9m518.9 0h-9"/><text transform="translate(78.8 227)" stroke="none" fill="#000" font-family="Arial" font-size="12" text-anchor="end"><tspan>16</tspan></text></g><g fill="none" color="#000" stroke="currentColor"><path stroke="#000" d="M87.1 120.6h9m518.9 0h-9"/><text transform="translate(78.8 124.5)" stroke="none" fill="#000" font-family="Arial" font-size="12" text-anchor="end"><tspan>16.0005</tspan></text></g><g fill="none" color="#000" stroke="currentColor"><path stroke="#000" d="M87.1 18.1h9m518.9 0h-9"/><text transform="translate(78.8 22)" stroke="none" fill="#000" font-family="Arial" font-size="12" text-anchor="end"><tspan>16.001</tspan></text></g><g fill="none" color="#000" stroke="currentColor"><path stroke="#000" d="M87.1 428v-9m0-400.9v9"/><text transform="translate(87.1 449.9)" stroke="none" fill="#000" font-family="Arial" font-size="12" text-anchor="middle"><tspan>0</tspan></text></g><g fill="none" color="#000" stroke="currentColor"><path stroke="#000" d="M140.4 428v-9m0-400.9v9"/><text transform="translate(140.4 449.9)" stroke="none" fill="#000" font-family="Arial" font-size="12" text-anchor="middle"><tspan>10</tspan></text></g><g fill="none" color="#000" stroke="currentColor"><path stroke="#000" d="M193.7 428v-9m0-400.9v9"/><text transform="translate(193.7 449.9)" stroke="none" fill="#000" font-family="Arial" font-size="12" text-anchor="middle"><tspan>20</tspan></text></g><g fill="none" color="#000" stroke="currentColor"><path stroke="#000" d="M247.1 428v-9m0-400.9v9"/><text transform="translate(247.1 449.9)" stroke="none" fill="#000" font-family="Arial" font-size="12" text-anchor="middle"><tspan>30</tspan></text></g><g fill="none" color="#000" stroke="currentColor"><path stroke="#000" d="M300.4 428v-9m0-400.9v9"/><text transform="translate(300.4 449.9)" stroke="none" fill="#000" font-family="Arial" font-size="12" text-anchor="middle"><tspan>40</tspan></text></g><g fill="none" color="#000" stroke="currentColor"><path stroke="#000" d="M353.7 428v-9m0-400.9v9"/><text transform="translate(353.7 449.9)" stroke="none" fill="#000" font-family="Arial" font-size="12" text-anchor="middle"><tspan>50</tspan></text></g><g fill="none" color="#000" stroke="currentColor"><path stroke="#000" d="M407 428v-9m0-400.9v9"/><text transform="translate(407 449.9)" stroke="none" fill="#000" font-family="Arial" font-size="12" text-anchor="middle"><tspan>60</tspan></text></g><g fill="none" color="#000" stroke="currentColor"><path stroke="#000" d="M460.4 428v-9m0-400.9v9"/><text transform="translate(460.4 449.9)" stroke="none" fill="#000" font-family="Arial" font-size="12" text-anchor="middle"><tspan>70</tspan></text></g><g fill="none" color="#000" stroke="currentColor"><path stroke="#000" d="M513.7 428v-9m0-400.9v9"/><text transform="translate(513.7 449.9)" stroke="none" fill="#000" font-family="Arial" font-size="12" text-anchor="middle"><tspan>80</tspan></text></g><g fill="none" color="#000" stroke="currentColor"><path stroke="#000" d="M567 428v-9m0-400.9v9"/><text transform="translate(567 449.9)" stroke="none" fill="#000" font-family="Arial" font-size="12" text-anchor="middle"><tspan>90</tspan></text></g><path stroke="#000" d="M87.1 18.1V428H615V18.1H87.1z" fill="none" color="#000"/><text transform="translate(292.2 467.9)" stroke="none" fill="#000" font-family="Arial" font-size="12" text-anchor="end" color="#000"><tspan>pages+cached+noexternal+nocss</tspan></text><path stroke="#9400D3" d="M300.5 464h42.2M87.1 223.1H615" fill="none" color="#000"/><text transform="translate(292.2 485.9)" stroke="none" fill="#000" font-family="Arial" font-size="12" text-anchor="end" color="#000"><tspan>pages+cached+noexternal+nojs</tspan></text><path stroke="#009E73" d="M300.5 482h42.2M87.1 223.1H615" fill="none" color="#000"/><text transform="translate(591.7 467.9)" stroke="none" fill="#000" font-family="Arial" font-size="12" text-anchor="end" color="#000"><tspan>score p10=130</tspan></text><path stroke="#56B4E9" d="M600 464h39.9" fill="none" color="#000"/><g><text transform="translate(591.7 485.9)" stroke="none" fill="#000" font-family="Arial" font-size="12" text-anchor="end" color="#000"><tspan>score median=250</tspan></text><path stroke="#E69F00" d="M600 482h39.9" fill="none" color="#000"/></g><g fill="none" color="#000" stroke="currentColor"><path stroke="#000" d="M87.1 18.1V428H615V18.1H87.1z"/></g></svg>

<?xml version="1.0" encoding="utf-8"  standalone="no"?>
<svg 
 width="640" height="500"
 viewBox="0 0 640 500"
 xmlns="http://www.w3.org/2000/svg"
 xmlns:xlink="http://www.w3.org/1999/xlink"
>

<title>Gnuplot</title>
<desc>Produced by GNUPLOT 5.4 patchlevel 0 </desc>

<g id="gnuplot_canvas">

<rect x="0" y="0" width="640" height="500" fill="#ffffff"/>
<defs>

	<circle id='gpDot' r='0.5' stroke-width='0.5' stroke='currentColor'/>
	<path id='gpPt0' stroke-width='0.222' stroke='currentColor' d='M-1,0 h2 M0,-1 v2'/>
	<path id='gpPt1' stroke-width='0.222' stroke='currentColor' d='M-1,-1 L1,1 M1,-1 L-1,1'/>
	<path id='gpPt2' stroke-width='0.222' stroke='currentColor' d='M-1,0 L1,0 M0,-1 L0,1 M-1,-1 L1,1 M-1,1 L1,-1'/>
	<rect id='gpPt3' stroke-width='0.222' stroke='currentColor' x='-1' y='-1' width='2' height='2'/>
	<rect id='gpPt4' stroke-width='0.222' stroke='currentColor' fill='currentColor' x='-1' y='-1' width='2' height='2'/>
	<circle id='gpPt5' stroke-width='0.222' stroke='currentColor' cx='0' cy='0' r='1'/>
	<use xlink:href='#gpPt5' id='gpPt6' fill='currentColor' stroke='none'/>
	<path id='gpPt7' stroke-width='0.222' stroke='currentColor' d='M0,-1.33 L-1.33,0.67 L1.33,0.67 z'/>
	<use xlink:href='#gpPt7' id='gpPt8' fill='currentColor' stroke='none'/>
	<use xlink:href='#gpPt7' id='gpPt9' stroke='currentColor' transform='rotate(180)'/>
	<use xlink:href='#gpPt9' id='gpPt10' fill='currentColor' stroke='none'/>
	<use xlink:href='#gpPt3' id='gpPt11' stroke='currentColor' transform='rotate(45)'/>
	<use xlink:href='#gpPt11' id='gpPt12' fill='currentColor' stroke='none'/>
	<path id='gpPt13' stroke-width='0.222' stroke='currentColor' d='M0,1.330 L1.265,0.411 L0.782,-1.067 L-0.782,-1.076 L-1.265,0.411 z'/>
	<use xlink:href='#gpPt13' id='gpPt14' fill='currentColor' stroke='none'/>
	<filter id='textbox' filterUnits='objectBoundingBox' x='0' y='0' height='1' width='1'>
	  <feFlood flood-color='#FFFFFF' flood-opacity='1' result='bgnd'/>
	  <feComposite in='SourceGraphic' in2='bgnd' operator='atop'/>
	</filter>
	<filter id='greybox' filterUnits='objectBoundingBox' x='0' y='0' height='1' width='1'>
	  <feFlood flood-color='lightgrey' flood-opacity='1' result='grey'/>
	  <feComposite in='SourceGraphic' in2='grey' operator='atop'/>
	</filter>
</defs>
<g fill="none" color="#FFFFFF" stroke="black" stroke-width="1.00" stroke-linecap="butt" stroke-linejoin="miter">
</g>
<g fill="none" color="black" stroke="currentColor" stroke-width="1.00" stroke-linecap="butt" stroke-linejoin="miter">
	<path stroke='black'  d='M87.1,428.0 L96.1,428.0 M615.0,428.0 L606.0,428.0  '/>	<g transform="translate(78.8,431.9)" stroke="none" fill="black" font-family="Arial" font-size="12.00"  text-anchor="end">
		<text><tspan font-family="Arial" > 15.999</tspan></text>
	</g>
</g>
<g fill="none" color="black" stroke="currentColor" stroke-width="1.00" stroke-linecap="butt" stroke-linejoin="miter">
	<path stroke='black'  d='M87.1,325.5 L96.1,325.5 M615.0,325.5 L606.0,325.5  '/>	<g transform="translate(78.8,329.4)" stroke="none" fill="black" font-family="Arial" font-size="12.00"  text-anchor="end">
		<text><tspan font-family="Arial" > 15.9995</tspan></text>
	</g>
</g>
<g fill="none" color="black" stroke="currentColor" stroke-width="1.00" stroke-linecap="butt" stroke-linejoin="miter">
	<path stroke='black'  d='M87.1,223.1 L96.1,223.1 M615.0,223.1 L606.0,223.1  '/>	<g transform="translate(78.8,227.0)" stroke="none" fill="black" font-family="Arial" font-size="12.00"  text-anchor="end">
		<text><tspan font-family="Arial" > 16</tspan></text>
	</g>
</g>
<g fill="none" color="black" stroke="currentColor" stroke-width="1.00" stroke-linecap="butt" stroke-linejoin="miter">
	<path stroke='black'  d='M87.1,120.6 L96.1,120.6 M615.0,120.6 L606.0,120.6  '/>	<g transform="translate(78.8,124.5)" stroke="none" fill="black" font-family="Arial" font-size="12.00"  text-anchor="end">
		<text><tspan font-family="Arial" > 16.0005</tspan></text>
	</g>
</g>
<g fill="none" color="black" stroke="currentColor" stroke-width="1.00" stroke-linecap="butt" stroke-linejoin="miter">
	<path stroke='black'  d='M87.1,18.1 L96.1,18.1 M615.0,18.1 L606.0,18.1  '/>	<g transform="translate(78.8,22.0)" stroke="none" fill="black" font-family="Arial" font-size="12.00"  text-anchor="end">
		<text><tspan font-family="Arial" > 16.001</tspan></text>
	</g>
</g>
<g fill="none" color="black" stroke="currentColor" stroke-width="1.00" stroke-linecap="butt" stroke-linejoin="miter">
	<path stroke='black'  d='M87.1,428.0 L87.1,419.0 M87.1,18.1 L87.1,27.1  '/>	<g transform="translate(87.1,449.9)" stroke="none" fill="black" font-family="Arial" font-size="12.00"  text-anchor="middle">
		<text><tspan font-family="Arial" > 0</tspan></text>
	</g>
</g>
<g fill="none" color="black" stroke="currentColor" stroke-width="1.00" stroke-linecap="butt" stroke-linejoin="miter">
	<path stroke='black'  d='M140.4,428.0 L140.4,419.0 M140.4,18.1 L140.4,27.1  '/>	<g transform="translate(140.4,449.9)" stroke="none" fill="black" font-family="Arial" font-size="12.00"  text-anchor="middle">
		<text><tspan font-family="Arial" > 10</tspan></text>
	</g>
</g>
<g fill="none" color="black" stroke="currentColor" stroke-width="1.00" stroke-linecap="butt" stroke-linejoin="miter">
	<path stroke='black'  d='M193.7,428.0 L193.7,419.0 M193.7,18.1 L193.7,27.1  '/>	<g transform="translate(193.7,449.9)" stroke="none" fill="black" font-family="Arial" font-size="12.00"  text-anchor="middle">
		<text><tspan font-family="Arial" > 20</tspan></text>
	</g>
</g>
<g fill="none" color="black" stroke="currentColor" stroke-width="1.00" stroke-linecap="butt" stroke-linejoin="miter">
	<path stroke='black'  d='M247.1,428.0 L247.1,419.0 M247.1,18.1 L247.1,27.1  '/>	<g transform="translate(247.1,449.9)" stroke="none" fill="black" font-family="Arial" font-size="12.00"  text-anchor="middle">
		<text><tspan font-family="Arial" > 30</tspan></text>
	</g>
</g>
<g fill="none" color="black" stroke="currentColor" stroke-width="1.00" stroke-linecap="butt" stroke-linejoin="miter">
	<path stroke='black'  d='M300.4,428.0 L300.4,419.0 M300.4,18.1 L300.4,27.1  '/>	<g transform="translate(300.4,449.9)" stroke="none" fill="black" font-family="Arial" font-size="12.00"  text-anchor="middle">
		<text><tspan font-family="Arial" > 40</tspan></text>
	</g>
</g>
<g fill="none" color="black" stroke="currentColor" stroke-width="1.00" stroke-linecap="butt" stroke-linejoin="miter">
	<path stroke='black'  d='M353.7,428.0 L353.7,419.0 M353.7,18.1 L353.7,27.1  '/>	<g transform="translate(353.7,449.9)" stroke="none" fill="black" font-family="Arial" font-size="12.00"  text-anchor="middle">
		<text><tspan font-family="Arial" > 50</tspan></text>
	</g>
</g>
<g fill="none" color="black" stroke="currentColor" stroke-width="1.00" stroke-linecap="butt" stroke-linejoin="miter">
	<path stroke='black'  d='M407.0,428.0 L407.0,419.0 M407.0,18.1 L407.0,27.1  '/>	<g transform="translate(407.0,449.9)" stroke="none" fill="black" font-family="Arial" font-size="12.00"  text-anchor="middle">
		<text><tspan font-family="Arial" > 60</tspan></text>
	</g>
</g>
<g fill="none" color="black" stroke="currentColor" stroke-width="1.00" stroke-linecap="butt" stroke-linejoin="miter">
	<path stroke='black'  d='M460.4,428.0 L460.4,419.0 M460.4,18.1 L460.4,27.1  '/>	<g transform="translate(460.4,449.9)" stroke="none" fill="black" font-family="Arial" font-size="12.00"  text-anchor="middle">
		<text><tspan font-family="Arial" > 70</tspan></text>
	</g>
</g>
<g fill="none" color="black" stroke="currentColor" stroke-width="1.00" stroke-linecap="butt" stroke-linejoin="miter">
	<path stroke='black'  d='M513.7,428.0 L513.7,419.0 M513.7,18.1 L513.7,27.1  '/>	<g transform="translate(513.7,449.9)" stroke="none" fill="black" font-family="Arial" font-size="12.00"  text-anchor="middle">
		<text><tspan font-family="Arial" > 80</tspan></text>
	</g>
</g>
<g fill="none" color="black" stroke="currentColor" stroke-width="1.00" stroke-linecap="butt" stroke-linejoin="miter">
	<path stroke='black'  d='M567.0,428.0 L567.0,419.0 M567.0,18.1 L567.0,27.1  '/>	<g transform="translate(567.0,449.9)" stroke="none" fill="black" font-family="Arial" font-size="12.00"  text-anchor="middle">
		<text><tspan font-family="Arial" > 90</tspan></text>
	</g>
</g>
<g fill="none" color="black" stroke="currentColor" stroke-width="1.00" stroke-linecap="butt" stroke-linejoin="miter">
</g>
<g fill="none" color="black" stroke="currentColor" stroke-width="1.00" stroke-linecap="butt" stroke-linejoin="miter">
	<path stroke='black'  d='M87.1,18.1 L87.1,428.0 L615.0,428.0 L615.0,18.1 L87.1,18.1 Z  '/></g>
<g fill="none" color="black" stroke="currentColor" stroke-width="1.00" stroke-linecap="butt" stroke-linejoin="miter">
</g>
	<g id="gnuplot_plot_1" ><title>pages+cached+noexternal+nocss</title>
<g fill="none" color="black" stroke="currentColor" stroke-width="1.00" stroke-linecap="butt" stroke-linejoin="miter">
	<g transform="translate(292.2,467.9)" stroke="none" fill="black" font-family="Arial" font-size="12.00"  text-anchor="end">
		<text><tspan font-family="Arial" >pages+cached+noexternal+nocss</tspan></text>
	</g>
</g>
<g fill="none" color="black" stroke="currentColor" stroke-width="1.00" stroke-linecap="butt" stroke-linejoin="miter">
	<path stroke='rgb(148,   0, 211)'  d='M300.5,464.0 L342.7,464.0 M87.1,223.1 L92.4,223.1 L97.8,223.1 L103.1,223.1 L108.4,223.1 L113.8,223.1
		L119.1,223.1 L124.4,223.1 L129.8,223.1 L135.1,223.1 L140.4,223.1 L145.8,223.1 L151.1,223.1 L156.4,223.1
		L161.8,223.1 L167.1,223.1 L172.4,223.1 L177.7,223.1 L183.1,223.1 L188.4,223.1 L193.7,223.1 L199.1,223.1
		L204.4,223.1 L209.7,223.1 L215.1,223.1 L220.4,223.1 L225.7,223.1 L231.1,223.1 L236.4,223.1 L241.7,223.1
		L247.1,223.1 L252.4,223.1 L257.7,223.1 L263.1,223.1 L268.4,223.1 L273.7,223.1 L279.1,223.1 L284.4,223.1
		L289.7,223.1 L295.1,223.1 L300.4,223.1 L305.7,223.1 L311.1,223.1 L316.4,223.1 L321.7,223.1 L327.1,223.1
		L332.4,223.1 L337.7,223.1 L343.1,223.1 L348.4,223.1 L353.7,223.1 L359.0,223.1 L364.4,223.1 L369.7,223.1
		L375.0,223.1 L380.4,223.1 L385.7,223.1 L391.0,223.1 L396.4,223.1 L401.7,223.1 L407.0,223.1 L412.4,223.1
		L417.7,223.1 L423.0,223.1 L428.4,223.1 L433.7,223.1 L439.0,223.1 L444.4,223.1 L449.7,223.1 L455.0,223.1
		L460.4,223.1 L465.7,223.1 L471.0,223.1 L476.4,223.1 L481.7,223.1 L487.0,223.1 L492.4,223.1 L497.7,223.1
		L503.0,223.1 L508.4,223.1 L513.7,223.1 L519.0,223.1 L524.4,223.1 L529.7,223.1 L535.0,223.1 L540.3,223.1
		L545.7,223.1 L551.0,223.1 L556.3,223.1 L561.7,223.1 L567.0,223.1 L572.3,223.1 L577.7,223.1 L583.0,223.1
		L588.3,223.1 L593.7,223.1 L599.0,223.1 L604.3,223.1 L609.7,223.1 L615.0,223.1  '/></g>
	</g>
	<g id="gnuplot_plot_2" ><title>pages+cached+noexternal+nojs</title>
<g fill="none" color="black" stroke="currentColor" stroke-width="1.00" stroke-linecap="butt" stroke-linejoin="miter">
	<g transform="translate(292.2,485.9)" stroke="none" fill="black" font-family="Arial" font-size="12.00"  text-anchor="end">
		<text><tspan font-family="Arial" >pages+cached+noexternal+nojs</tspan></text>
	</g>
</g>
<g fill="none" color="black" stroke="currentColor" stroke-width="1.00" stroke-linecap="butt" stroke-linejoin="miter">
	<path stroke='rgb(  0, 158, 115)'  d='M300.5,482.0 L342.7,482.0 M87.1,223.1 L92.4,223.1 L97.8,223.1 L103.1,223.1 L108.4,223.1 L113.8,223.1
		L119.1,223.1 L124.4,223.1 L129.8,223.1 L135.1,223.1 L140.4,223.1 L145.8,223.1 L151.1,223.1 L156.4,223.1
		L161.8,223.1 L167.1,223.1 L172.4,223.1 L177.7,223.1 L183.1,223.1 L188.4,223.1 L193.7,223.1 L199.1,223.1
		L204.4,223.1 L209.7,223.1 L215.1,223.1 L220.4,223.1 L225.7,223.1 L231.1,223.1 L236.4,223.1 L241.7,223.1
		L247.1,223.1 L252.4,223.1 L257.7,223.1 L263.1,223.1 L268.4,223.1 L273.7,223.1 L279.1,223.1 L284.4,223.1
		L289.7,223.1 L295.1,223.1 L300.4,223.1 L305.7,223.1 L311.1,223.1 L316.4,223.1 L321.7,223.1 L327.1,223.1
		L332.4,223.1 L337.7,223.1 L343.1,223.1 L348.4,223.1 L353.7,223.1 L359.0,223.1 L364.4,223.1 L369.7,223.1
		L375.0,223.1 L380.4,223.1 L385.7,223.1 L391.0,223.1 L396.4,223.1 L401.7,223.1 L407.0,223.1 L412.4,223.1
		L417.7,223.1 L423.0,223.1 L428.4,223.1 L433.7,223.1 L439.0,223.1 L444.4,223.1 L449.7,223.1 L455.0,223.1
		L460.4,223.1 L465.7,223.1 L471.0,223.1 L476.4,223.1 L481.7,223.1 L487.0,223.1 L492.4,223.1 L497.7,223.1
		L503.0,223.1 L508.4,223.1 L513.7,223.1 L519.0,223.1 L524.4,223.1 L529.7,223.1 L535.0,223.1 L540.3,223.1
		L545.7,223.1 L551.0,223.1 L556.3,223.1 L561.7,223.1 L567.0,223.1 L572.3,223.1 L577.7,223.1 L583.0,223.1
		L588.3,223.1 L593.7,223.1 L599.0,223.1 L604.3,223.1 L609.7,223.1 L615.0,223.1  '/></g>
	</g>
	<g id="gnuplot_plot_3" ><title>score p10=130</title>
<g fill="none" color="black" stroke="currentColor" stroke-width="1.00" stroke-linecap="butt" stroke-linejoin="miter">
	<g transform="translate(591.7,467.9)" stroke="none" fill="black" font-family="Arial" font-size="12.00"  text-anchor="end">
		<text><tspan font-family="Arial" >score p10=130</tspan></text>
	</g>
</g>
<g fill="none" color="black" stroke="currentColor" stroke-width="1.00" stroke-linecap="butt" stroke-linejoin="miter">
	<path stroke='rgb( 86, 180, 233)'  d='M600.0,464.0 L639.9,464.0  '/></g>
	</g>
	<g id="gnuplot_plot_4" ><title>score median=250</title>
<g fill="none" color="black" stroke="currentColor" stroke-width="1.00" stroke-linecap="butt" stroke-linejoin="miter">
	<g transform="translate(591.7,485.9)" stroke="none" fill="black" font-family="Arial" font-size="12.00"  text-anchor="end">
		<text><tspan font-family="Arial" >score median=250</tspan></text>
	</g>
</g>
<g fill="none" color="black" stroke="currentColor" stroke-width="1.00" stroke-linecap="butt" stroke-linejoin="miter">
	<path stroke='rgb(230, 159,   0)'  d='M600.0,482.0 L639.9,482.0  '/></g>
	</g>
<g fill="none" color="#FFFFFF" stroke="rgb(230, 159,   0)" stroke-width="2.00" stroke-linecap="butt" stroke-linejoin="miter">
</g>
<g fill="none" color="black" stroke="currentColor" stroke-width="2.00" stroke-linecap="butt" stroke-linejoin="miter">
</g>
<g fill="none" color="black" stroke="black" stroke-width="1.00" stroke-linecap="butt" stroke-linejoin="miter">
</g>
<g fill="none" color="black" stroke="currentColor" stroke-width="1.00" stroke-linecap="butt" stroke-linejoin="miter">
	<path stroke='black'  d='M87.1,18.1 L87.1,428.0 L615.0,428.0 L615.0,18.1 L87.1,18.1 Z  '/></g>
<g fill="none" color="black" stroke="currentColor" stroke-width="1.00" stroke-linecap="butt" stroke-linejoin="miter">
</g>
</g>
</svg>
